X:1
T:Title
%%score { 1 | 2 }
L:1/8
M:6/8
K:Bb
V:1 treble nm="Grand Piano"
V:2 bass 
V:1
 z3 z2[Q:1/4=87] [DB]/[Ec]/ | [Fd]2 [Fd] [Fd][Ec][DB] | cBG [DF]2 [FB] | ccc c[GB][Fc] | %4
[M:5/8] [Fd]-[Fd]- [Fd]3 |[M:1/8] [DB]/[Ec]/ |[M:3/4] [Fd]2 [Fd][Fd] cB | cB G [DF]2 [FB] | %8
 cc c d2 c | [DB]6 | [Fd]3 [DB]2 [DF] | GG G [DF]2 [FB] | cc cc Bc |[M:5/8] [Fd]-[Fd]- [Fd]3 | %14
[M:1/8] [DB]/[Ec]/ |[M:3/4] [Fd][Fd] [Fd][Fd] cB | cB G [DF]2 [FB] |[M:13/16] [Fc][FB]cdd3/2c | %18
[M:5/8] [DB]- [DB]3 z |] %19
V:2
 z3 z2 [B,,B,] | [B,,B,]2 [B,,B,] [B,,B,]2 [B,,B,] | [E,G,E]2 [E,B,E] [B,,B,]2 [D,B,] | %3
 [F,A,F][F,A,F][F,A,F] [F,A,F][F,G,][F,A,] |[M:5/8] [B,,B,]-[B,,B,]- [B,,B,]3 |[M:1/8] [B,,B,] | %6
[M:3/4] [B,,B,]2 [B,,B,][B,,B,] [F,A,E][G,B,D] | [E,G,E][E,G,E] [E,B,E] [B,,B,]2 [D,B,] | %8
 [F,A,F][F,A,F] [F,A,F] [B,F]2[K:bass] [F,A,E] | [B,,B,]6 | [B,,B,]3 [B,,B,]2 [B,,B,] | %11
 [E,B,E][E,B,E] [E,B,E] [B,,B,]2 [D,B,] | [F,A,F][F,A,F] [F,A,F][F,A,F] [F,G,F][F,A,F] | %13
[M:5/8] [B,,B,]-[B,,B,]- [B,,B,]3 |[M:1/8] [B,,B,] | %15
[M:3/4] [B,,B,][B,,B,] [B,,B,][B,,B,] [F,A,E][G,B,D] | [E,G,E]2 [E,B,E] [B,,B,]2 [D,B,] | %17
[M:13/16] [F,A,][D,B,][K:treble][F,A,F][B,F][B,F]3/2[K:bass][F,A,E] |[M:5/8] [B,,B,]- [B,,B,]3 z |] %19

